X:237
T:Dale la vuelta, Pepe
R:Xiraldilla
C:Tradicional
S:Msica Tradicional Asturiana, (C) Tello & Tito. Asturies, 2001.
S:http://pagina.de/MusTradAst <telloytito@asturies.org>
A:Asturies
Z:Asturias, canciones
M:2/4
L:1/8
Q:1/4=110
K:C
B
|Bc cc|BA dd|d2 c2|B2 z B|
Bc cc|BA dd|d2 c2|B4|
z G GA|B2 A2|
GG GA|B2 A2|G2 z2||
W:Dale la vuelta, Pepe,
W:dale la vuelta,
W:que quiero ver el forro
W:de tu chaqueta.
W:Que dale la vuelta,
W:que dale la vuelta.
W:
